X:1
T:Title
%%score ( 1 2 ) ( 3 4 )
L:1/8
Q:1/4=103
M:6/8
K:Eb
V:1 treble nm="Grand Piano, Soprano"
V:2 treble 
V:3 bass nm="Choir Pad, Bass"
V:4 bass 
V:1
 [EG] [EG]2 [GB] [_Gc]2 | [_G=A] [=GB]2- [GB] [EG]2 | [EG] [DA]2 [Ad] [Ac]2 | %3
w: By~Nellie~Shorthill~Bradshaw * * *|||
 [FA] [EG]2- [EG]2- [EG]/ z/ | [GB] [Ac]2 [EA] [Ae]2 | [Ac] [GB]2 [_G=A] [=GB]2 | %6
w: |||
 [EG]FB [Fd] [Fd]2 | [Ec] [DB]2- [DB]2- [DB]/ z/ | [AB] [Ad]2 [Ac] [GB]2 | %9
w: |||
 [FA] [_Gc]2- [Gc] [=GB]2 | [EG][FA][Bd] [Ac] [GB]2 | [FA] [EG]2- [EG]2- [EG]/ z/ | %12
w: |||
 E [EG]2 [EG] [DA]2 | [DA] [E=A]2 [EA] [EB]2 | [GB] [Ac]2 [Ac]cd | [=Ae] [_Ad]2- [Ad]2- [Ad]/ z/ | %16
w: ||||
 [AB] [Ae]2 [Gd] [Gc]2 | z A2- A2- A/ z/ | [FA] [Bd]2 [Ac] [DF]2 | z B2- B2- B/ z/ | %20
w: ||||
 [FB] [Ee]2 [Ee] [Fd]2 | [FG] [Ec]2 [Ec] [EB]2 | z .e2 z3 | [DF] E2- E3- | E3 z3 |] %25
w: |||||
V:2
 x6 | x6 | x6 | x6 | x6 | x6 | z D2 z3 | x6 | x6 | x6 | x6 | x6 | x6 | x6 | z3 z =A2 | x6 | x6 | %17
 [EG] F2 E D2 | x6 | [Dc] E2 A G2 | x6 | x6 | [Ee]E-[EB] [Ec] [DG]2 | x6 | x6 |] %25
V:3
 [E,B,] [E,B,]2 [E,B,] [E,=A,]2 | [E,C] [E,B,]2- [E,B,] [E,B,]2 | [E,B,] [F,B,]2 [B,,B,] [B,,B,]2 | %3
 [B,,B,] [E,B,]2- [E,B,]2- [E,B,]/ z/ | [E,E] [A,E]2 [A,C] [A,C]2 | [A,E] [E,E]2 [E,C] [E,B,]2 | %6
 z .B,2 z .=A,2 | [F,=A,] [B,,B,]2- [B,,B,]2- [B,,B,]/ z/ | [B,,B,] [B,,B,]2 [B,,B,] [B,,B,]2 | %9
 [B,,B,] [E,=A,]2- [E,A,] [E,B,]2 | z3 z B,2 | [D,B,] [E,B,]2- [E,B,]2- [E,B,]/ z/ | %12
 [E,G,] [E,B,]2 [E,B,] [F,B,]2 | [F,B,] [_G,C]2 [G,C] [=G,B,]2 | [E,E] [A,E]2 [A,E]ED | %15
 C/[K:treble]F/ [B,F]2- [B,F]2- [B,F]/ z/ | [B,D][K:bass] [E,B,]2 [E,B,] [E,E]2 | %17
 [E,B,] B,2- [C,B,-][B,,-B,]>B,, | [B,,B,] [B,,B,]2 [B,,B,] [B,,A,]2 | z G,2 z3 | %20
 [A,D] [G,B,]2 [G,B,] [G,=B,]2 | [G,=B,] [A,C]2 [C,A,] [E,G,]2 | %22
 [=B,,_G,] [_B,,=G,]2 [A,,A,] [B,,A,]2 | [B,,A,] [E,G,]2- [E,G,]3- | [E,G,]3 z3 |] %25
V:4
 x6 | x6 | x6 | x6 | x6 | x6 | [E,B,]F,-[F,D] [F,B,]F,-[F,G,] | x6 | x6 | x6 | %10
 [E,B,] [B,,B,]2 [B,,B,]B,,C, | x6 | x6 | x6 | z3 z F,2 | .F,3[K:treble] z3 | x[K:bass] x5 | %17
 z D,2 z3 | x6 | [B,,A,] E,2- [E,-C][E,B,-]>B, | x6 | x6 | x6 | x6 | x6 |] %25

